X:1
T:Hamsher High, 97.97 D
T:Hamsher High, 97.97 D
T:John Robson Sweney, 1882
T:Public Domain Courtesy of the Cyber Hymnal™
C:John Robson Sweney, 1882
Z:Public Domain
Z:Courtesy of the Cyber Hymnal™
%%score ( 1 2 ) ( 3 4 )
L:1/8
Q:1/4=100
M:4/4
K:G
V:1 treble 
V:2 treble 
V:3 bass 
V:4 bass 
V:1
 (GA) | [DB]2 D2 D2 [DG][GB] | [GB]2 [FA]2 [FA]2 ([FA][GB]) | [Ac]2 [Ac]>[Fc] D2 [Dc]2 | %4
 [DB]6 ([GB][Ac]) | [Gd]2 [Gd]2 [Gd]2 [Gc][GB] | [Gc]2 [Gc]2 [Gc]2 [EA]2 | %7
 [DG]2 [DF][DG] [GB]2 [FA]2 | G6 [GB]2 | [GB]3 [FA] [FA]2 [GB][Ac] | [Ac]2 [GB]2 [GB]2 [Gd]2 | %11
 [Fd]2 [Fd][Fd] [G^c]2 [Gc]2 | (d4 dc) ([GB][Ac]) | [Gd]2 [Gd]2 [Gd]2 [Gc][GB] | %14
 [Gc]2 [Gc]2 [Gc]2 [EA]2 | [DG]2 [DF][DG] [GB]2 [FA]2 | G6 |] %17
V:2
 D2 | x2 D2 D2 x2 | x8 | x4 D2 x2 | x8 | x8 | x8 | x8 | G6 x2 | x8 | x8 | x8 | F6 x2 | x8 | x8 | %15
 x8 | G6 |] %17
V:3
 (B,C) | [G,D]2 [G,B,]2 [G,B,]2 [G,B,][G,D] | [D,D]2 [D,D]2 [D,D]2 [D,D]2 | %3
 [D,D]2 [D,D]>[D,A,] [D,F,]2 [F,A,]2 | G,6 [G,D]2 | [G,B,]2 [G,B,]2 [G,B,]2 [E,C][D,D] | %6
 [C,E]2 [C,E]2 [C,E]2 [C,C]2 | [D,B,]2 [D,A,][D,B,] [D,D]2 [D,C]2 | [G,,B,]6 [G,D]2 | %9
 [D,D]3 [D,D] [D,D]2 [D,D][D,D] | [G,D]2 [G,D]2 [G,D]2 [G,B,]2 | A,2 A,A, [A,,A,]2 [A,,A,]2 | %12
 [D,A,]6 [D,D]2 | [G,B,]2 [G,B,]2 [G,B,]2 [E,C][D,D] | [C,E]2 [C,E]2 [C,E]2 [C,C]2 | %15
 [D,B,]2 [D,A,][D,B,] [D,D]2 [D,C]2 | [G,,B,]6 |] %17
V:4
 G,2 | x8 | x8 | x8 | G,6 x2 | x8 | x8 | x8 | x8 | x8 | x8 | A,2 A,A, x4 | x8 | x8 | x8 | x8 | %16
 x6 |] %17

